flaticon/file-type/zip.svg

<svg xmlns="http://www.w3.org/2000/svg" width="32" height="32" viewBox="0 0 24 24">
    <path d="M 21.082031 5.042969 L 20.765625 4.722656 L 16.585938 0.546875 L 16.269531 0.226562 C 16.125 0.0820312 15.921875 0 15.71875 0 L 3.707031 0 C 3.21875 0 2.691406 0.378906 2.691406 1.210938 L 2.691406 23.171875 C 2.691406 23.519531 3.039062 23.855469 3.449219 23.960938 C 3.472656 23.96875 3.492188 23.976562 3.511719 23.980469 C 3.578125 23.992188 3.644531 24 3.707031 24 L 20.292969 24 C 20.355469 24 20.421875 23.992188 20.488281 23.980469 C 20.507812 23.976562 20.527344 23.96875 20.550781 23.960938 C 20.960938 23.855469 21.308594 23.519531 21.308594 23.171875 L 21.308594 5.785156 C 21.308594 5.46875 21.273438 5.234375 21.082031 5.042969 Z M 16.34375 1.476562 L 19.835938 4.964844 L 16.34375 4.964844 Z M 3.707031 23.171875 C 3.679688 23.171875 3.652344 23.160156 3.625 23.152344 C 3.5625 23.121094 3.515625 23.054688 3.515625 22.980469 L 3.515625 16.964844 L 20.484375 16.964844 L 20.484375 22.980469 C 20.484375 23.054688 20.4375 23.121094 20.375 23.152344 C 20.347656 23.160156 20.320312 23.171875 20.292969 23.171875 Z M 3.515625 16.136719 L 3.515625 1.210938 C 3.515625 1.121094 3.53125 0.828125 3.707031 0.828125 L 15.542969 0.828125 C 15.527344 0.878906 15.515625 0.933594 15.515625 0.988281 L 15.515625 5.792969 L 20.320312 5.792969 C 20.375 5.792969 20.429688 5.78125 20.480469 5.769531 C 20.480469 5.773438 20.484375 5.777344 20.484375 5.785156 L 20.484375 16.136719 Z M 3.515625 16.136719"/>
    <path d="M8.097656 18.722656L10.199219 18.722656 10.082031 18.816406 8.097656 21.796875 8.097656 22.34375 10.867188 22.34375 10.867188 21.796875 8.769531 21.796875 8.882812 21.707031 10.867188 18.722656 10.867188 18.175781 8.097656 18.175781zM11.835938 18.175781L12.527344 18.175781 12.527344 22.34375 11.835938 22.34375zM15.753906 18.515625C15.617188 18.402344 15.460938 18.316406 15.285156 18.261719 15.113281 18.203125 14.9375 18.175781 14.761719 18.175781L13.5625 18.175781 13.5625 22.34375 14.242188 22.34375 14.242188 20.839844 14.746094 20.839844C14.960938 20.839844 15.164062 20.808594 15.34375 20.742188 15.523438 20.679688 15.679688 20.589844 15.808594 20.472656 15.9375 20.355469 16.035156 20.210938 16.109375 20.039062 16.179688 19.867188 16.214844 19.675781 16.214844 19.464844 16.214844 19.265625 16.171875 19.085938 16.085938 18.925781 16.003906 18.765625 15.890625 18.628906 15.753906 18.515625zM15.496094 19.890625C15.453125 20.007812 15.398438 20.097656 15.332031 20.160156 15.265625 20.226562 15.191406 20.269531 15.109375 20.300781 15.027344 20.328125 14.945312 20.34375 14.863281 20.34375L14.242188 20.34375 14.242188 18.691406 14.75 18.691406C14.921875 18.691406 15.0625 18.71875 15.167969 18.773438 15.273438 18.828125 15.355469 18.894531 15.414062 18.976562 15.472656 19.058594 15.511719 19.140625 15.53125 19.230469 15.546875 19.320312 15.558594 19.398438 15.558594 19.464844 15.558594 19.636719 15.539062 19.777344 15.496094 19.890625zM12.207031 9.515625L13.035156 9.515625 13.035156 8.691406 12.207031 8.691406 12.207031 7.863281 13.035156 7.863281 13.035156 7.035156 12.207031 7.035156 12.207031 6.207031 13.035156 6.207031 13.035156 5.378906 12.207031 5.378906 12.207031 4.550781 13.035156 4.550781 13.035156 3.722656 12.207031 3.722656 12.207031 2.898438 11.378906 2.898438 11.378906 3.722656 10.550781 3.722656 10.550781 4.550781 11.378906 4.550781 11.378906 5.378906 10.550781 5.378906 10.550781 6.207031 11.378906 6.207031 11.378906 7.035156 10.550781 7.035156 10.550781 7.863281 11.378906 7.863281 11.378906 8.691406 10.550781 8.691406 10.550781 9.515625 11.378906 9.515625 11.378906 10.34375 9.722656 10.34375 9.722656 12.414062C9.722656 13.554688 10.652344 14.484375 11.792969 14.484375 12.933594 14.484375 13.863281 13.554688 13.863281 12.414062L13.863281 10.34375 12.207031 10.34375zM13.035156 12.414062C13.035156 13.097656 12.476562 13.65625 11.792969 13.65625 11.109375 13.65625 10.550781 13.097656 10.550781 12.414062L10.550781 11.171875 13.035156 11.171875zM13.035156 12.414062"/>
    <path d="M 11.378906 12.828125 L 12.207031 12.828125 C 12.433594 12.828125 12.621094 12.644531 12.621094 12.414062 C 12.621094 12.183594 12.433594 12 12.207031 12 L 11.378906 12 C 11.152344 12 10.964844 12.183594 10.964844 12.414062 C 10.964844 12.644531 11.152344 12.828125 11.378906 12.828125 Z M 11.378906 12.828125"/>
</svg>

<svg xmlns="http://www.w3.org/2000/svg" width="32" height="32" viewBox="0 0 24 24">
    <path d="M21.082 5.043l-.316-.32-4.18-4.176-.316-.32A.787.787 0 0 0 15.719 0H3.707c-.488 0-1.016.379-1.016 1.21v21.962c0 .348.348.683.758.789.024.008.043.016.063.02.066.011.133.019.195.019h16.586c.062 0 .129-.008.195-.02.02-.003.04-.011.063-.02.41-.105.758-.44.758-.788V5.785c0-.316-.036-.55-.227-.742zm-4.738-3.566l3.492 3.488h-3.492zM3.707 23.172c-.027 0-.055-.012-.082-.02a.197.197 0 0 1-.11-.172v-6.015h16.97v6.015c0 .075-.047.141-.11.172-.027.008-.055.02-.082.02zm-.191-7.035V1.21c0-.09.015-.383.191-.383h11.836a.55.55 0 0 0-.027.16v4.805h4.804a.72.72 0 0 0 .16-.023c0 .003.004.007.004.015v10.352zm0 0"/>
    <path d="M8.098 18.723h2.101l-.117.093-1.984 2.98v.548h2.77v-.547H8.77l.113-.09 1.984-2.984v-.547h-2.77zm0 0M11.836 18.176h.691v4.168h-.691zm0 0M15.754 18.516a1.364 1.364 0 0 0-.469-.254 1.615 1.615 0 0 0-.523-.086h-1.2v4.168h.68V20.84h.504c.215 0 .418-.031.598-.098.18-.062.336-.152.465-.27.129-.117.226-.261.3-.433.07-.172.106-.363.106-.574 0-.2-.043-.38-.13-.54a1.303 1.303 0 0 0-.331-.41zm-.258 1.375a.69.69 0 0 1-.164.27.614.614 0 0 1-.223.14.777.777 0 0 1-.246.043h-.62V18.69h.507c.172 0 .313.028.418.082a.675.675 0 0 1 .363.457c.016.09.028.168.028.235 0 .172-.02.312-.063.426zm0 0M12.207 9.516h.828V8.69h-.828v-.828h.828v-.828h-.828v-.828h.828v-.828h-.828V4.55h.828v-.828h-.828v-.825h-.828v.825h-.828v.828h.828v.828h-.828v.828h.828v.828h-.828v.828h.828v.828h-.828v.825h.828v.828H9.723v2.07c0 1.14.93 2.07 2.07 2.07 1.14 0 2.07-.93 2.07-2.07v-2.07h-1.656zm.828 2.898c0 .684-.558 1.242-1.242 1.242a1.245 1.245 0 0 1-1.242-1.242v-1.242h2.484zm0 0"/>
    <path d="M11.379 12.828h.828a.414.414 0 0 0 0-.828h-.828a.414.414 0 0 0 0 .828zm0 0"/>
</svg>
